assets/svg/swift.svg

<?xml version="1.0" encoding="UTF-8"?>
<svg width="39px" height="39px" viewBox="0 0 39 39" version="1.1" xmlns="http://www.w3.org/2000/svg" xmlns:xlink="http://www.w3.org/1999/xlink">
    <title>swift</title>
    <defs>
        <linearGradient x1="59.3830999%" y1="-3.56828125%" x2="40.5108513%" y2="103.580664%" id="linearGradient-1">
            <stop stop-color="#FAAE42" offset="0%"></stop>
            <stop stop-color="#EF3E31" offset="100%"></stop>
        </linearGradient>
        <linearGradient x1="59.8404246%" y1="5.74840186%" x2="43.6223274%" y2="94.0379483%" id="linearGradient-2">
            <stop stop-color="#E39F3A" offset="0%"></stop>
            <stop stop-color="#D33929" offset="100%"></stop>
        </linearGradient>
    </defs>
    <g id="Garage" stroke="none" stroke-width="1" fill="none" fill-rule="evenodd">
        <g id="Yard-/-Pricing-Copy-2" transform="translate(-1238.000000, -3769.000000)" fill-rule="nonzero">
            <g id="Features" transform="translate(465.000000, 1330.000000)">
                <g id="Langs" transform="translate(150.000000, 2133.000000)">
                    <g id="Group-5" transform="translate(0.000000, 179.000000)">
                        <g id="swift" transform="translate(623.000000, 127.000000)">
                            <path d="M8.63463035,0 C8.86225681,0 29.7735409,0 30.1529183,0 C31.2,0 32.2167315,0.16692607 33.2031128,0.515953307 C34.629572,1.03190661 35.9194553,1.94241245 36.8906615,3.12607004 C37.8770428,4.30972763 38.529572,5.76653696 38.7571984,7.28404669 C38.848249,7.84552529 38.8634241,8.40700389 38.8634241,8.96848249 C38.8634241,9.4844358 38.8634241,27.6642023 38.8634241,28.4836576 C38.8634241,28.9692607 38.8634241,29.4700389 38.8634241,29.955642 C38.8634241,30.6233463 38.8330739,31.3062257 38.6964981,31.9587549 C38.3929961,33.4610895 37.6797665,34.8723735 36.6478599,36.0105058 C35.6311284,37.1486381 34.2957198,37.9984436 32.8540856,38.4536965 C31.97393,38.7268482 31.0634241,38.848249 30.1377432,38.848249 C29.7280156,38.848249 8.57392996,38.848249 8.25525292,38.8330739 C6.707393,38.7571984 5.17470817,38.2564202 3.8848249,37.3914397 C2.62529183,36.5416342 1.59338521,35.3579767 0.925680934,33.9922179 C0.349027237,32.8237354 0.0607003891,31.518677 0.0607003891,30.2136187 C0.0607003891,29.9101167 0.0607003891,8.9381323 0.0607003891,8.63463035 C0.0303501946,7.34474708 0.303501946,6.07003891 0.864980545,4.91673152 C1.51750973,3.55097276 2.53424125,2.35214008 3.79377432,1.50233463 C5.08365759,0.622178988 6.60116732,0.106225681 8.14902724,0.0303501946 C8.30077821,0 8.46770428,0 8.63463035,0 Z" id="Path" fill="url(#linearGradient-1)"></path>
                            <path d="M32.7782101,31.7766537 C32.6416342,31.5642023 32.4898833,31.351751 32.3229572,31.1544747 C31.9435798,30.6992218 31.5035019,30.3046693 31.0178988,29.9708171 C30.4108949,29.5610895 29.6976654,29.3031128 28.9692607,29.2727626 C28.4533074,29.2424125 27.9373541,29.333463 27.451751,29.5155642 C26.9661479,29.6824903 26.4957198,29.9252918 26.0404669,30.1680934 C25.5093385,30.4412451 24.9782101,30.7143969 24.4167315,30.9420233 C23.7490272,31.2151751 23.0509728,31.4276265 22.3377432,31.5793774 C21.4424125,31.7463035 20.5319066,31.8070039 19.6365759,31.7918288 C18.0128405,31.7614786 16.3891051,31.518677 14.8412451,31.0634241 C13.4754864,30.6536965 12.170428,30.0922179 10.9412451,29.3789883 C9.86381323,28.7568093 8.86225681,28.0435798 7.92140078,27.2392996 C7.14747082,26.5715953 6.43424125,25.8583658 5.76653696,25.0996109 C5.31128405,24.5684825 4.87120623,24.0070039 4.4614786,23.4303502 C4.29455253,23.2027237 4.14280156,22.9599222 4.00622568,22.7171206 C4.00622568,22.7171206 4.00622568,22.7171206 4.00622568,22.7171206 C4.00622568,22.7171206 4.00622568,22.7171206 4.00622568,22.7171206 L0,18.3922179 L0,8.60428016 C0,3.85447471 3.83929961,0 8.58910506,0 L16.2525292,0 L21.9280156,5.76653696 C21.9280156,5.76653696 21.9280156,5.76653696 21.9280156,5.76653696 C34.7357977,14.4770428 30.5929961,24.0828794 30.5929961,24.0828794 C30.5929961,24.0828794 34.2350195,28.1801556 32.7782101,31.7766537 Z" id="Path" fill="url(#linearGradient-2)"></path>
                            <path d="M21.9583658,5.76653696 C34.7661479,14.4770428 30.6233463,24.0828794 30.6233463,24.0828794 C30.6233463,24.0828794 34.2653696,28.1953307 32.7933852,31.7918288 C32.7933852,31.7918288 31.2910506,29.2727626 28.7719844,29.2727626 C26.3439689,29.2727626 24.9175097,31.7918288 20.0311284,31.7918288 C9.15058366,31.7918288 4.00622568,22.7019455 4.00622568,22.7019455 C13.8093385,29.1513619 20.5015564,24.5836576 20.5015564,24.5836576 C16.0856031,22.0190661 6.6922179,9.75758755 6.6922179,9.75758755 C14.8715953,16.7229572 18.407393,18.559144 18.407393,18.559144 C16.2980545,16.8140078 10.3797665,8.28560311 10.3797665,8.28560311 C15.1143969,13.0809339 24.5229572,19.7731518 24.5229572,19.7731518 C27.1937743,12.3677043 21.9583658,5.76653696 21.9583658,5.76653696 Z" id="Path" fill="#FFFFFF"></path>
                        </g>
                    </g>
                </g>
            </g>
        </g>
    </g>
</svg>

<svg width="39" height="39" xmlns="http://www.w3.org/2000/svg"><defs><linearGradient x1="59.383%" y1="-3.568%" x2="40.511%" y2="103.581%" id="a"><stop stop-color="#FAAE42" offset="0%"/><stop stop-color="#EF3E31" offset="100%"/></linearGradient><linearGradient x1="59.84%" y1="5.748%" x2="43.622%" y2="94.038%" id="b"><stop stop-color="#E39F3A" offset="0%"/><stop stop-color="#D33929" offset="100%"/></linearGradient></defs><g fill-rule="nonzero" fill="none"><path d="M8.635 0h21.518a9.07 9.07 0 013.05.516 8.572 8.572 0 013.688 2.61 8.509 8.509 0 011.866 4.158c.091.562.106 1.123.106 1.684v20.988c0 .667-.03 1.35-.167 2.003a8.59 8.59 0 01-2.048 4.052 8.59 8.59 0 01-3.794 2.443c-.88.273-1.79.394-2.716.394-.41 0-21.564 0-21.883-.015a8.66 8.66 0 01-4.37-1.442 8.77 8.77 0 01-2.96-3.399 8.563 8.563 0 01-.864-3.778V8.634a8.056 8.056 0 01.804-3.717 8.616 8.616 0 012.929-3.415A8.5 8.5 0 018.149.03C8.301 0 8.468 0 8.635 0z" fill="url(#a)"/><path d="M32.778 31.777a5.928 5.928 0 00-.455-.623c-.38-.455-.82-.85-1.305-1.183a3.995 3.995 0 00-2.049-.698 3.71 3.71 0 00-1.517.243c-.486.166-.956.41-1.412.652-.53.273-1.062.546-1.623.774-.668.273-1.366.486-2.08.637-.895.167-1.805.228-2.7.213a18.255 18.255 0 01-4.796-.729 18.14 18.14 0 01-3.9-1.684 20.109 20.109 0 01-3.02-2.14 22.068 22.068 0 01-2.154-2.14A23.43 23.43 0 014.46 23.43a7.078 7.078 0 01-.455-.713L0 18.392V8.604C0 3.854 3.84 0 8.59 0h7.663l5.675 5.767c12.808 8.71 8.665 18.316 8.665 18.316s3.642 4.097 2.185 7.694z" fill="url(#b)"/><path d="M21.958 5.767c12.808 8.71 8.665 18.316 8.665 18.316s3.642 4.112 2.17 7.709c0 0-1.502-2.52-4.021-2.52-2.428 0-3.854 2.52-8.74 2.52-10.881 0-16.026-9.09-16.026-9.09 9.803 6.45 16.496 1.882 16.496 1.882-4.416-2.565-13.81-14.826-13.81-14.826 8.18 6.965 11.715 8.801 11.715 8.801-2.109-1.745-8.027-10.273-8.027-10.273 4.734 4.795 14.143 11.487 14.143 11.487 2.67-7.405-2.565-14.006-2.565-14.006z" fill="#FFF"/></g></svg>
